icons/places/deprecated-list.svg

<!-- This Source Code Form is subject to the terms of the Mozilla Public
   - License, v. 2.0. If a copy of the MPL was not distributed with this
   - file, You can obtain one at http://mozilla.org/MPL/2.0/. -->
<svg xmlns="http://www.w3.org/2000/svg" viewBox="0 0 32 32">
  <defs>
    <style>
      .cls-1{fill-rule:evenodd}
    </style>
  </defs>
  <title>
    firefox
  </title>
  <path class="cls-1" d="M4.06 20.37h3.5V18h-3.5zm0 5.83h3.5v-2.33h-3.5zm0-11.67h3.5v-2.32h-3.5zm0-5.83h3.5V6.37h-3.5zm5.84 5.84h18.66v-2.33H9.9zm0-8.17v2.34h18.66V6.37zm0 19.83h18.66v-2.33H9.9zm0-5.83h18.66V18H9.9z" id="Action-icons"/>
</svg>

<svg xmlns="http://www.w3.org/2000/svg" viewBox="0 0 32 32"><defs><style>.cls-1{fill-rule:evenodd;}</style></defs><title>firefox</title><g id="Action-icons"><path class="cls-1" d="M4.06,20.37h3.5V18H4.06Zm0,5.83h3.5V23.87H4.06Zm0-11.67h3.5V12.21H4.06Zm0-5.83h3.5V6.37H4.06ZM9.9,14.54H28.56V12.21H9.9Zm0-8.17V8.71H28.56V6.37Zm0,19.83H28.56V23.87H9.9Zm0-5.83H28.56V18H9.9Z"/></g></svg>
